X:1
T:Title
%%score { ( 1 3 ) | ( 2 4 ) }
L:1/8
Q:1/4=100
M:4/4
K:A
V:1 treble nm="Grand Piano"
V:3 treble 
V:2 bass 
V:4 bass 
V:1
 [A,CE][A,CE][G,DE][G,DE] [A,CE] [A,EA]2 [A,EG] | [A,DF]2 [^A,EF]2 [B,DF]4 | %2
w: J.~M.~Dungan * * * * * *||
 [B,EG][B,EG][B,EF][B,E] [EB][A,EA][A,E][^A,EF] | %3
w: |
[M:17/16] [B,EG][G,B,][B,CG]>[A,^DF]E-[B,E-][CE-][DE]3/2 | %4
w: |
[M:4/4] [A,CE][A,CE][G,DE][G,DE] [A,CE] [A,EA]2 [A,EG] | [A,DF]2 [B,FB]>[Ec] [Dd]4 | %6
w: ||
 F2 GA E2 [EA]c | [^Dc][DB][=DE][DB] [CA]4 |[M:12/8] c2- [Ec] c2- [Ec] cBA [CE]2 [CE] | %9
w: |||
 z2 D [FA]2 [Fd] c2- [Ec-] [Ec]3 | z6 B3 [DE]3 | A2 G BAF E-[CE-][CE-] [CE]3 | %12
w: |||
 c2- [Ec] c2- [Ec] cBA [CE]2 [CE] | z2 D [FA]2 [Fd] c2- [Ec-] [Ec]3 | c2 B G2 E z2 E B2 E | %15
w: |||
 A2- [CA-] [DA-]2 [DA-] [CA]3 z3 |] %16
w: |
V:2
 A,,A,,B,,B,, C, C,2 C, | D,2 C,2 B,,4 | E,E,D,D, [C,A,]C,C,=C, | %3
[M:17/16] z/ z/ z/ z/ z/ z/ z E,/-E,/-E,/-E,/-E,/-E,-<E, |[M:4/4] A,,A,,B,,B,, C, C,2 C, | %5
 D,2 D,>[C,^A,] [B,,B,]4 | [D,A,D]2 [D,A,D][D,A,D] [E,A,C]2 [C,A,][A,E] | %7
 [B,,A,][B,,A,][E,G,][E,G,] [A,,A,]4 | %8
[M:12/8] [A,,A,]2 [A,,A,] [A,,A,]2 [A,,A,] [A,,A,]3 [A,,A,]2 [A,,A,] | %9
 [D,A,D]2 [D,A,] [D,A,]2 [D,A,] [A,,A,]2 [A,,A,] [A,,A,]3 | %10
 [E,G,E]2 [E,G,D] [E,G,C]2 [E,G,E] D2- [E,D] E,2 E, | A,,3 [D,A,D]3 [A,,A,][C,A,][E,A,] A,3 | %12
 [A,,A,]2 [A,,A,] [A,,A,]2 [A,,A,] [A,,A,]3 [A,,A,]2 [A,,A,] | %13
 [D,A,D]2 [D,A,] [D,A,]2 [D,A,] [A,,A,]2 [A,,A,] [A,,A,]3 | [E,G,D]3 [E,B,D]3 [E,G,]6 | %15
 z2 A, F,2 F, E,3 z3 |] %16
V:3
 x8 | x8 | x8 |[M:17/16] z/ z/ z/ z/ z/ z/ z .G,3/2 z/ z/ z/ z/ z |[M:4/4] x8 | x8 | x8 | x8 | %8
[M:12/8] .E3 .E3 E3 z3 | F3 z3 .E3 z3 | c2 B ^A2 c z2 G, G,2 G, | [A,C]3 z3 .C3 z3 | %12
 .E3 .E3 E3 z3 | F3 z3 .E3 z3 | z6 D6 | .[A,C]3 z3 z6 |] %16
V:4
 x8 | x8 | x8 |[M:17/16] B,,B,,B,,>B,, z G,A,B,3/2 |[M:4/4] x8 | x8 | x8 | x8 |[M:12/8] x12 | x12 | %10
 z6 .[E,G,]3 z3 | x12 | x12 | x12 | x12 | A,,6- A,,3 z3 |] %16

